icons/mobile/24/svg/audio-muted-24.svg

<svg width="24" height="24" viewBox="0 0 24 24" fill="none" xmlns="http://www.w3.org/2000/svg">
<path d="M7.79102 5.14604C8.92902 3.13404 12 3.94148 12 6.25248V17.7466C12 20.0576 8.92904 20.865 7.79102 18.8531L6.02148 15.7232C5.8685 15.7272 5.68303 15.7456 5.54004 15.7456C4.93704 15.7456 4.36973 15.7137 3.84473 15.6607C2.79002 15.5546 2.00022 14.6472 2 13.5874V10.4068C2.00012 9.36895 2.8529 8.43467 3.88672 8.33256C4.49372 8.27256 5.04904 8.25248 5.54004 8.25248C5.70802 8.25248 5.86438 8.26213 6.02637 8.26713L7.79102 5.14604Z" fill="black"/>
<path d="M20.5059 8.25541C20.8475 7.91398 21.4025 7.91402 21.7441 8.25541C22.0858 8.59706 22.0857 9.15197 21.7441 9.49369L19.2383 11.9996L21.7441 14.5054C22.0858 14.8471 22.0857 15.402 21.7441 15.7437C21.4024 16.0854 20.8476 16.0854 20.5059 15.7437L18 13.2378L15.4941 15.7437C15.1524 16.0854 14.5976 16.0854 14.2559 15.7437C13.9144 15.402 13.9142 14.847 14.2559 14.5054L16.7617 11.9996L14.2559 9.49369C13.9144 9.15196 13.9142 8.59704 14.2559 8.25541C14.5975 7.91398 15.1525 7.91402 15.4941 8.25541L18 10.7613L20.5059 8.25541Z" fill="black"/>
</svg>

<!-- This Source Code Form is subject to the terms of the Mozilla Public
   - License, v. 2.0. If a copy of the MPL was not distributed with this
   - file, You can obtain one at http://mozilla.org/MPL/2.0/. -->
<svg xmlns="http://www.w3.org/2000/svg" width="24" height="24" fill="none" viewBox="0 0 24 24">
    <path fill="#000" d="M7.791 5.146C8.929 3.134 12 3.941 12 6.252v11.495c0 2.31-3.071 3.118-4.209 1.106l-1.77-3.13c-.152.004-.338.023-.481.023-.603 0-1.17-.032-1.695-.085C2.79 15.555 2 14.647 2 13.587v-3.18c0-1.038.853-1.972 1.887-2.074.607-.06 1.162-.08 1.653-.08.168 0 .324.01.486.014zm12.715 3.109a.876.876 0 0 1 1.238 1.239L19.238 12l2.506 2.505a.876.876 0 0 1-1.238 1.239L18 13.238l-2.506 2.506a.876.876 0 0 1-1.238-1.239L16.762 12l-2.506-2.506a.876.876 0 0 1 1.238-1.239L18 10.761z" />
</svg>
